X: 13280
T: Five Servants, The
R: polka
M: 2/4
K: Dmajor
|:FEFA|GFGB|ABcd|ed B/c/d|AGFG|A/B/A/G/ F/G/A|GEFE|1 D2DE:|2 D2De||
|:fdfd|fd f/g/a|edcd|e/f/e/d/ B/c/d|AGFG|A/B/A/G/ F/G/A|GEFE|1 D2De:|2 D2D2||

